src/assets/header/logo-desktop.svg

<svg width="168" height="68" viewBox="0 0 168 68" fill="none" xmlns="http://www.w3.org/2000/svg">
<path d="M37.8857 46.143C37.8857 46.143 51.9779 28.3959 33.5384 21.7154C15.1014 15.0374 24.4657 19.7239 10.4588 12.2676C10.4588 12.2676 8.00824 16.3456 14.4344 24.5853L10.6535 24.1138C10.6535 24.1138 9.62368 30.253 19.4704 31.868L15.2936 33.5425C15.2936 33.5425 18.704 37.3328 24.5688 36.2629L22.2532 38.8743C22.2532 38.8743 24.9048 41.4007 30.184 38.6867L28.3929 40.6541C28.3929 40.6541 31.9255 43.8346 35.7916 41.8875C35.7916 41.8875 39.0059 41.1928 37.8857 46.143Z" fill="url(#paint0_linear_348_641)"/>
<path d="M37.9363 43.0199C37.9363 43.0199 49.2063 28.8298 34.4623 23.4879C19.7222 18.1511 27.2087 21.897 16.0088 15.9365C16.0088 15.9365 14.0509 19.1969 19.1888 25.7874L16.1654 25.4109C16.1654 25.4109 15.3418 30.3167 23.214 31.6097L19.8749 32.9471C19.8749 32.9471 22.6017 35.9793 27.2915 35.1224L25.438 37.209C25.438 37.209 27.5601 39.2309 31.7801 37.0606L30.3492 38.6363C30.3492 38.6363 33.1728 41.1716 36.2649 39.6175C36.2649 39.6175 38.8364 39.061 37.9363 43.0199Z" fill="#131313"/>
<path d="M56.8404 53.5067C56.8404 53.5067 44.0085 31.0313 64.7051 26.0963C85.3978 21.1613 74.7185 25.1595 90.7508 18.6641C90.7508 18.6641 92.8525 23.7182 84.8695 32.2254L88.9953 32.2457C88.9953 32.2457 89.2983 39.4497 78.5006 39.8465L82.7716 42.3818C82.7716 42.3818 78.6088 46.2316 72.4475 44.1312L74.5951 47.4765C74.5951 47.4765 71.4164 49.9839 66.0965 46.0833L67.7641 48.611C67.7641 48.611 63.5492 51.737 59.6487 48.9279C59.6487 48.9279 56.2841 47.6603 56.8404 53.5054" fill="url(#paint1_linear_348_641)"/>
<path d="M57.1839 49.9142C57.1839 49.9142 46.9235 31.9478 63.4688 27.9991C80.0127 24.0504 71.4798 27.2461 84.2939 22.0576C84.2939 22.0576 85.973 26.0964 79.5926 32.8986L82.8885 32.9138C82.8885 32.9138 83.1329 38.6714 74.5019 38.9883L77.9186 41.0204C77.9186 41.0204 74.5897 44.097 69.6594 42.4224L71.3818 45.0934C71.3818 45.0934 68.8383 47.1 64.5839 43.9842L65.9155 46.001C65.9155 46.001 62.5471 48.5033 59.4295 46.2583C59.4295 46.2583 56.7358 45.2366 57.1839 49.9142Z" fill="#131313"/>
<g clip-path="url(#clip0_348_641)">
<path d="M68.682 42.5271C68.7154 42.2819 68.756 42.0375 68.7844 41.7963C68.812 41.5502 68.8323 41.3034 68.8454 41.0562C69.2592 35.9466 67.6983 30.8724 64.4814 26.8703C62.8203 24.7814 60.7597 23.0412 58.4189 21.7503C56.0781 20.4594 53.5035 19.6434 50.8441 19.3495C39.9303 18.1093 30.0268 25.7468 28.4101 36.4779C28.3677 36.722 28.3313 36.9615 28.2987 37.2077L28.2338 37.9428C27.8279 43.0533 29.3915 48.126 32.6067 52.1297C35.9963 56.3711 40.8342 59.0434 46.2421 59.6602C57.1568 60.8915 67.0613 53.2532 68.682 42.5271ZM50.6777 20.8147C53.1435 21.0871 55.5306 21.8439 57.7007 23.0414C59.8708 24.2388 61.7808 25.8531 63.32 27.7907C66.3053 31.5262 67.7304 36.1513 67.3732 40.8895L64.9828 40.6243C65.275 36.5348 64.009 32.4859 61.4372 29.2844C60.0948 27.5933 58.4283 26.1847 56.5346 25.1404C54.641 24.096 52.5578 23.4367 50.4061 23.2008C48.2562 22.9504 46.0777 23.1275 43.997 23.7218C41.9163 24.3161 39.9748 25.3158 38.2851 26.6629C35.0318 29.241 32.9205 32.8549 32.2733 36.9207L29.8841 36.6447C31.4136 26.7248 40.5782 19.6712 50.6777 20.8147ZM63.5109 40.4477L63.5059 40.4516L61.0839 40.1774C61.2708 37.1166 60.3091 34.0957 58.3854 31.7012C57.3603 30.4108 56.0881 29.336 54.6426 28.5393C53.197 27.7425 51.6069 27.2396 49.9646 27.0598C48.3236 26.869 46.661 27.0042 45.0729 27.4574C43.4848 27.9106 42.0027 28.6729 40.7123 29.7001C38.3001 31.6039 36.6811 34.3296 36.1677 37.3517L33.7496 37.0824C34.3416 33.4233 36.2897 30.1181 39.2093 27.8195C40.7469 26.5938 42.5133 25.6839 44.4064 25.1426C46.2995 24.6013 48.2815 24.4392 50.2379 24.6658C52.1954 24.8824 54.0904 25.4834 55.8131 26.4341C57.5357 27.3849 59.052 28.6664 60.274 30.2046C62.6148 33.1336 63.7455 36.743 63.5109 40.4477ZM55.4516 48.1434C53.1327 49.981 50.2351 50.8095 47.2917 50.4753C44.3484 50.1411 41.7064 48.6917 39.861 46.3826C38.1906 44.2902 37.3416 41.6641 37.4722 38.9943L37.4772 38.9903C37.486 38.7468 37.4947 38.5033 37.5242 38.2532C37.5576 38.0092 37.5977 37.7661 37.6446 37.5243C38.1125 34.8909 39.5333 32.5196 41.6381 30.8586C43.957 29.021 46.8546 28.1926 49.798 28.5267C51.2463 28.6866 52.6484 29.131 53.923 29.8342C55.1977 30.5374 56.3196 31.4854 57.2237 32.6233C58.9122 34.7361 59.7433 37.3354 59.6125 40.0117C59.6038 40.2552 59.5989 40.5036 59.5655 40.7488C59.5368 41 59.4915 41.2384 59.4451 41.4777C58.9772 44.1111 57.5564 46.4825 55.4516 48.1434ZM35.9992 38.8266C35.8183 41.8867 36.7794 44.9054 38.6978 47.3028C39.723 48.5938 40.996 49.6687 42.4426 50.4649C43.8891 51.2611 45.4804 51.7626 47.1236 51.9403C48.7645 52.1318 50.4273 51.9971 52.0156 51.5439C53.6038 51.0906 55.0859 50.3279 56.3758 49.2999C58.788 47.3961 60.407 44.6704 60.9205 41.6483L63.3425 41.9226C62.7449 45.5797 60.7979 48.8829 57.8828 51.1855C56.3441 52.4105 54.5768 53.3196 52.6831 53.86C50.7894 54.4005 48.8069 54.5617 46.8502 54.3343C44.8922 54.1185 42.9966 53.5182 41.2731 52.5681C39.5496 51.6181 38.0323 50.3371 36.8092 48.7994C34.4876 45.9039 33.3351 42.2497 33.5772 38.5523L35.9992 38.8266ZM46.4105 58.1853C43.9446 57.9129 41.5575 57.1561 39.3874 55.9587C37.2173 54.7612 35.3074 53.1469 33.7681 51.2093C30.7989 47.5123 29.3501 42.8305 29.7149 38.1105L32.1041 38.3864C31.8137 42.4757 33.0795 46.524 35.6497 49.7263C36.9948 51.4154 38.6627 52.8222 40.5569 53.8658C42.4511 54.9093 44.5342 55.5687 46.6858 55.806C48.8357 56.0546 51.0137 55.8767 53.0941 55.2825C55.1746 54.6882 57.1162 53.6895 58.8068 52.3438C62.0319 49.799 64.1764 46.1382 64.8136 42.09L67.2041 42.3553C65.6745 52.2752 56.5099 59.3289 46.4105 58.1853Z" fill="#F8F7F7"/>
</g>
<path d="M20.7237 0C20.6172 2.52051 20.5639 5.22744 20.5639 8.1208C20.5639 11.0142 20.6172 13.7211 20.7237 16.2416H0C0.121725 13.3482 0.182587 10.6413 0.182587 8.1208C0.182587 5.6003 0.121725 2.89336 0 0H5.3635V11.7226H8.01102V0H12.9637V11.7226H15.3602V0H20.7237Z" fill="#F8F7F7"/>
<path d="M35.9305 8.16555C39.3996 8.16555 41.1342 9.24683 41.1342 11.4094C41.1342 12.4236 40.8984 13.2886 40.4267 14.0045C39.955 14.7054 39.1105 15.2573 37.8933 15.66C36.676 16.0477 34.9871 16.2416 32.8265 16.2416H22.556C22.6777 13.3482 22.7385 10.6413 22.7385 8.1208C22.7385 5.6003 22.6777 2.89336 22.556 0H27.9195V0.0223715H32.7808C34.6676 0.0223715 36.1511 0.178971 37.2314 0.492169C38.3269 0.790455 39.0953 1.23042 39.5366 1.81208C39.993 2.39374 40.2213 3.13199 40.2213 4.02685C40.2213 4.93661 39.8941 5.74944 39.2399 6.46532C38.6008 7.16629 37.4977 7.73304 35.9305 8.16555ZM27.9195 4.09396V6.1745H32.3016C33.2449 6.1745 33.8992 6.09247 34.2644 5.92841C34.6448 5.76435 34.835 5.46607 34.835 5.03356C34.835 4.69053 34.6372 4.4519 34.2415 4.31767C33.8612 4.16853 33.2145 4.09396 32.3016 4.09396H27.9195ZM32.3016 12.1477C33.0928 12.1477 33.6938 12.1178 34.1046 12.0582C34.5306 11.9836 34.835 11.8643 35.0175 11.7002C35.2001 11.5213 35.2914 11.2826 35.2914 10.9843C35.2914 10.5966 35.0708 10.3207 34.6295 10.1566C34.2035 9.97763 33.4275 9.88814 32.3016 9.88814H27.9195V12.1477H32.3016Z" fill="#F8F7F7"/>
<path d="M48.5417 0.0223715L48.1537 12.5727L53.6998 0.0223715H62.0988C61.9923 2.54288 61.939 5.24236 61.939 8.1208C61.939 11.0142 61.9923 13.7211 62.0988 16.2416H56.2332L56.644 4.02685L51.1207 16.2416H42.9499C43.0716 13.3482 43.1325 10.6413 43.1325 8.1208C43.1325 5.61521 43.0716 2.91573 42.9499 0.0223715H48.5417Z" fill="#F8F7F7"/>
<path d="M83.0722 12.2595H84.008V19.9329H78.5989V16.689H68.4196V20H63.0105V12.2595H64.1516C64.8059 12.1402 65.308 11.8792 65.658 11.4765C66.0079 11.0738 66.2666 10.4325 66.434 9.55257C66.5709 8.82177 66.6394 7.15884 66.6394 4.56376L66.6166 0L83.0722 0.0223715V12.2595ZM71.7518 11.2975C71.6605 11.7151 71.5769 12.0358 71.5008 12.2595H77.2979V4.38479H72.1855L72.1627 5.68233C72.1627 6.81581 72.1322 7.81506 72.0714 8.68009C72.0257 9.5302 71.9192 10.4027 71.7518 11.2975Z" fill="#F8F7F7"/>
<path d="M100.531 8.47875C101.429 9.19463 102.114 9.99254 102.585 10.8725C103.072 11.7375 103.544 12.8039 104 14.0716C104.381 15.1007 104.685 15.824 104.913 16.2416H98.2033C98.112 15.9881 97.9903 15.5481 97.8381 14.9217C97.686 14.2356 97.5186 13.6614 97.336 13.1991C97.1686 12.7368 96.9252 12.3341 96.6056 11.9911C96.0883 11.4541 95.4416 11.1111 94.6656 10.962C93.9049 10.7979 92.855 10.7159 91.516 10.7159V16.2416H85.833C85.9547 13.3482 86.0156 10.6413 86.0156 8.1208C86.0156 5.6003 85.9547 2.89336 85.833 0H91.516V5.83893C91.6682 5.85384 91.8964 5.8613 92.2007 5.8613C94.5743 3.5645 96.3394 1.61074 97.4958 0H104.891L97.7925 6.93512C98.7967 7.32289 99.7096 7.83743 100.531 8.47875Z" fill="#F8F7F7"/>
<path d="M120 4.4519C118.189 4.36242 116.85 4.31022 115.983 4.2953V11.9463C116.866 11.9314 118.205 11.8792 120 11.7897V16.2416H106.74V11.7897C108.489 11.8792 109.821 11.9314 110.734 11.9463V4.2953C109.821 4.31022 108.489 4.36242 106.74 4.4519V0H120V4.4519Z" fill="#F8F7F7"/>
<path d="M14.6364 41.3526C15.5303 42.0578 16.2121 42.8439 16.6818 43.7107C17.1667 44.5629 17.6364 45.6134 18.0909 46.8623C18.4697 47.876 18.7727 48.5886 19 49H12.3182C12.2273 48.7502 12.1061 48.3168 11.9545 47.6997C11.803 47.0239 11.6364 46.4582 11.4545 46.0028C11.2879 45.5473 11.0455 45.1506 10.7273 44.8127C10.2121 44.2837 9.56818 43.9458 8.79545 43.7989C8.03788 43.6373 6.99242 43.5565 5.65909 43.5565V49H0C0.121212 46.1497 0.181818 43.483 0.181818 41C0.181818 38.517 0.121212 35.8503 0 33H5.65909V38.7521C5.81061 38.7668 6.03788 38.7741 6.34091 38.7741C8.70455 36.5115 10.4621 34.5868 11.6136 33H18.9773L11.9091 39.832C12.9091 40.214 13.8182 40.7208 14.6364 41.3526Z" fill="#F8F7F7"/>
<path d="M104.761 49.5306H99.0079V37.0926H93.9139L93.8911 38.4537C93.8911 39.6428 93.8608 40.691 93.8002 41.5984C93.7547 42.4902 93.6486 43.4055 93.4818 44.3442C93.1786 46.0495 92.4054 47.4185 91.1622 48.4511C89.9342 49.4837 88.2135 50 86 50V45.4237C86.5913 45.2986 87.0537 45.0248 87.3872 44.6023C87.7359 44.1643 88.0012 43.4681 88.1831 42.5137C88.3196 41.7471 88.3878 40.0026 88.3878 37.2803L88.3651 32.4928L104.761 32.5163V49.5306Z" fill="#F8F7F7"/>
<path d="M111.954 45.236C117.715 45.2047 121.892 45.1186 124.484 44.9778C124.378 45.6193 124.31 46.2842 124.279 46.9726C124.264 47.6454 124.257 48.498 124.257 49.5306H106.587C106.708 46.4954 106.769 43.6558 106.769 41.0117C106.769 38.3677 106.708 35.528 106.587 32.4928H124.257V36.7405H111.954V38.9935C112.681 39.0091 113.758 39.0169 115.183 39.0169C117.593 39.0169 120.087 38.97 122.665 38.8761V42.9126C120.087 42.8188 117.593 42.7718 115.183 42.7718C113.758 42.7718 112.681 42.7797 111.954 42.7953V45.236Z" fill="#F8F7F7"/>
<path d="M136.314 49.7653C132.887 49.7653 130.363 49.0143 128.741 47.5124C127.119 46.0104 126.308 43.867 126.308 41.0821C126.308 38.2816 127.119 36.0678 128.741 34.4407C130.363 32.8136 132.887 32 136.314 32C141.104 32 144.311 33.6975 145.933 37.0926C144.569 37.5776 142.969 38.3051 141.135 39.2751C140.695 38.399 139.998 37.7497 139.043 37.3272C138.103 36.9048 137.14 36.6936 136.154 36.6936C134.699 36.6936 133.615 37.0926 132.902 37.8905C132.19 38.6728 131.834 39.6428 131.834 40.8005C131.834 42.0522 132.213 43.0769 132.971 43.8748C133.744 44.6571 134.919 45.0482 136.496 45.0482C137.754 45.0482 138.754 44.837 139.497 44.4146C140.24 43.9765 140.786 43.2881 141.135 42.3494C142.378 43.0378 143.97 43.8123 145.91 44.6728C145.152 46.5658 143.886 47.8879 142.113 48.6389C140.339 49.3898 138.406 49.7653 136.314 49.7653Z" fill="#F8F7F7"/>
<path d="M162.11 49.5306C161.822 48.6389 161.435 47.5202 160.95 46.1747H153.696L152.559 49.5306H146.851L153.218 32.4928H161.587L168 49.5306H162.11ZM159.654 42.5137C159.078 40.8709 158.487 39.2282 157.88 37.5854L157.334 36.06C156.804 37.4837 156.023 39.6349 154.992 42.5137H159.654Z" fill="#F8F7F7"/>
<defs>
<linearGradient id="paint0_linear_348_641" x1="26.5177" y1="12.2676" x2="26.5177" y2="46.143" gradientUnits="userSpaceOnUse">
<stop stop-color="#074D2A"/>
<stop offset="1" stop-color="#F29544"/>
</linearGradient>
<linearGradient id="paint1_linear_348_641" x1="71.9545" y1="18.6641" x2="71.9545" y2="53.5067" gradientUnits="userSpaceOnUse">
<stop stop-color="#074D2A"/>
<stop offset="1" stop-color="#F29544"/>
</linearGradient>
<clipPath id="clip0_348_641">
<rect width="40.6313" height="40.6698" fill="white" transform="matrix(0.624299 0.781185 -0.783744 0.621085 51.7988 11)"/>
</clipPath>
</defs>
</svg>

<svg xmlns="http://www.w3.org/2000/svg" width="168" height="68" fill="none"><path fill="url(#a)" d="M37.886 46.143s14.092-17.747-4.348-24.428c-18.437-6.678-9.072-1.991-23.08-9.447 0 0-2.45 4.078 3.976 12.317l-3.78-.471s-1.03 6.139 8.816 7.754l-4.176 1.674s3.41 3.79 9.275 2.72l-2.316 2.612s2.652 2.527 7.931-.187l-1.791 1.967s3.532 3.18 7.399 1.233c0 0 3.214-.694 2.094 4.256Z"/><path fill="#131313" d="M37.936 43.02s11.27-14.19-3.474-19.532c-14.74-5.337-7.253-1.591-18.453-7.551 0 0-1.958 3.26 3.18 9.85l-3.024-.376s-.823 4.906 7.049 6.199l-3.34 1.337s2.728 3.032 7.418 2.175l-1.854 2.087s2.122 2.022 6.342-.148l-1.43 1.575s2.823 2.536 5.915.981c0 0 2.571-.556 1.671 3.403Z"/><path fill="url(#b)" d="M56.84 53.507s-12.832-22.476 7.865-27.41c20.693-4.936 10.014-.938 26.046-7.433 0 0 2.102 5.054-5.882 13.561l4.126.02s.303 7.205-10.494 7.602l4.27 2.535s-4.162 3.85-10.323 1.75l2.147 3.345s-3.179 2.507-8.498-1.394l1.667 2.528s-4.215 3.126-8.115.317c0 0-3.365-1.268-2.809 4.577"/><path fill="#131313" d="M57.184 49.914S46.924 31.948 63.469 28c16.544-3.949 8.01-.753 20.825-5.941 0 0 1.679 4.038-4.701 10.84l3.295.016s.245 5.757-8.386 6.074l3.417 2.032s-3.33 3.077-8.26 1.402l1.723 2.671s-2.544 2.007-6.798-1.109l1.331 2.017s-3.368 2.502-6.486.257c0 0-2.693-1.021-2.245 3.656Z"/><g clip-path="url(#c)"><path fill="#F8F7F7" d="M68.682 42.527c.033-.245.074-.49.102-.73.028-.247.048-.494.061-.74a20.056 20.056 0 0 0-4.364-14.187 20.22 20.22 0 0 0-6.062-5.12 20.305 20.305 0 0 0-7.575-2.4C39.93 18.11 30.027 25.746 28.41 36.477a18.16 18.16 0 0 0-.111.73l-.065.735a20.112 20.112 0 0 0 4.373 14.187c3.39 4.241 8.227 6.913 13.635 7.53 10.915 1.232 20.82-6.407 22.44-17.133ZM50.678 20.815A18.812 18.812 0 0 1 57.7 23.04a18.735 18.735 0 0 1 5.619 4.75 18.613 18.613 0 0 1 4.053 13.098l-2.39-.265a16.255 16.255 0 0 0-3.546-11.34 16.322 16.322 0 0 0-4.902-4.144 16.388 16.388 0 0 0-6.129-1.94 16.421 16.421 0 0 0-6.409.522 16.378 16.378 0 0 0-5.712 2.94c-3.253 2.579-5.364 6.193-6.012 10.259l-2.389-.276c1.53-9.92 10.694-16.974 20.794-15.83ZM63.51 40.448l-.005.004-2.422-.275a12.332 12.332 0 0 0-2.699-8.476 12.462 12.462 0 0 0-3.742-3.162 12.512 12.512 0 0 0-4.678-1.48 12.547 12.547 0 0 0-9.253 2.641 12.393 12.393 0 0 0-4.544 7.652l-2.418-.27a14.8 14.8 0 0 1 5.46-9.262 14.955 14.955 0 0 1 11.029-3.154 14.94 14.94 0 0 1 5.574 1.768 14.88 14.88 0 0 1 4.461 3.77 14.807 14.807 0 0 1 3.237 10.244Zm-8.06 7.695a11.047 11.047 0 0 1-8.16 2.332 11.04 11.04 0 0 1-7.43-4.092 10.981 10.981 0 0 1-2.389-7.389l.005-.004c.009-.243.018-.487.047-.737.034-.244.074-.487.12-.729a10.928 10.928 0 0 1 3.994-6.665 11.048 11.048 0 0 1 8.16-2.332c1.448.16 2.85.604 4.125 1.307a11.004 11.004 0 0 1 3.3 2.79 10.91 10.91 0 0 1 2.39 7.388c-.01.243-.014.492-.047.737a9.38 9.38 0 0 1-.12.729 10.928 10.928 0 0 1-3.994 6.665ZM36 38.827c-.18 3.06.78 6.078 2.699 8.476a12.443 12.443 0 0 0 3.745 3.162 12.493 12.493 0 0 0 4.68 1.475 12.5 12.5 0 0 0 9.252-2.64 12.394 12.394 0 0 0 4.545-7.652l2.422.275a14.86 14.86 0 0 1-5.46 9.262 14.961 14.961 0 0 1-11.033 3.149 14.944 14.944 0 0 1-5.576-1.766A14.884 14.884 0 0 1 36.81 48.8a14.83 14.83 0 0 1-3.232-10.247l2.422.275ZM46.41 58.185a18.814 18.814 0 0 1-7.023-2.226 18.738 18.738 0 0 1-5.619-4.75 18.624 18.624 0 0 1-4.053-13.099l2.39.276c-.291 4.09.975 8.138 3.545 11.34a16.37 16.37 0 0 0 4.907 4.14 16.437 16.437 0 0 0 6.129 1.94c2.15.249 4.328.07 6.408-.523a16.41 16.41 0 0 0 5.713-2.94 16.29 16.29 0 0 0 6.007-10.253l2.39.265c-1.53 9.92-10.694 16.974-20.793 15.83Z"/></g><path fill="#F8F7F7" d="M20.724 0c-.107 2.52-.16 5.227-.16 8.12 0 2.894.053 5.601.16 8.122H0c.122-2.894.183-5.6.183-8.121C.183 5.6.122 2.893 0 0h5.364v11.723H8.01V0h4.953v11.723h2.396V0h5.364ZM35.93 8.166c3.47 0 5.204 1.08 5.204 3.243 0 1.015-.236 1.88-.707 2.595-.472.701-1.316 1.253-2.534 1.656-1.217.388-2.906.582-5.066.582H22.556c.122-2.894.182-5.6.182-8.121 0-2.52-.06-5.228-.182-8.121h5.363v.022h4.862c1.887 0 3.37.157 4.45.47 1.096.298 1.864.738 2.306 1.32.456.582.684 1.32.684 2.215 0 .91-.327 1.722-.981 2.438-.64.701-1.742 1.268-3.31 1.7Zm-8.01-4.072v2.08h4.382c.943 0 1.597-.082 1.962-.246.38-.164.571-.462.571-.894 0-.343-.198-.582-.593-.716-.38-.15-1.027-.224-1.94-.224h-4.383Zm4.382 8.054c.79 0 1.392-.03 1.803-.09.426-.074.73-.194.913-.358.182-.179.273-.417.273-.716 0-.387-.22-.663-.661-.827-.427-.18-1.203-.269-2.328-.269h-4.383v2.26h4.383ZM48.542.022l-.388 12.55L53.7.023h8.399c-.107 2.52-.16 5.22-.16 8.099 0 2.893.053 5.6.16 8.12h-5.866l.411-12.214-5.523 12.215H42.95c.122-2.894.182-5.6.182-8.121 0-2.506-.06-5.205-.182-8.099h5.592ZM83.072 12.26h.936v7.673h-5.41v-3.244H68.42V20h-5.41v-7.74h1.142c.654-.12 1.156-.38 1.506-.784.35-.402.609-1.044.776-1.923.137-.731.205-2.394.205-4.99L66.617 0l16.455.022V12.26Zm-11.32-.963a9.427 9.427 0 0 1-.251.962h5.797V4.385h-5.112l-.023 1.297c0 1.134-.03 2.133-.092 2.998-.045.85-.152 1.723-.32 2.617ZM100.531 8.479c.898.716 1.583 1.514 2.054 2.394.487.865.959 1.93 1.415 3.199.381 1.029.685 1.752.913 2.17h-6.71c-.091-.254-.213-.694-.365-1.32-.152-.686-.32-1.26-.502-1.723a3.496 3.496 0 0 0-.73-1.208c-.518-.537-1.164-.88-1.94-1.029-.761-.164-1.811-.246-3.15-.246v5.526h-5.683c.122-2.894.183-5.6.183-8.121 0-2.52-.061-5.228-.183-8.121h5.683v5.839c.152.015.38.022.685.022 2.373-2.296 4.138-4.25 5.295-5.861h7.395l-7.099 6.935c1.005.388 1.918.902 2.739 1.544ZM120 4.452c-1.811-.09-3.15-.142-4.017-.157v7.651c.883-.015 2.222-.067 4.017-.156v4.452h-13.26V11.79c1.749.09 3.081.141 3.994.156v-7.65c-.913.014-2.245.066-3.994.156V0H120v4.452ZM14.636 41.353c.894.705 1.576 1.49 2.046 2.358.485.852.954 1.902 1.409 3.151.379 1.014.682 1.727.909 2.138h-6.682c-.09-.25-.212-.683-.364-1.3a11.34 11.34 0 0 0-.5-1.697 3.436 3.436 0 0 0-.727-1.19c-.515-.53-1.159-.867-1.932-1.014-.757-.162-1.803-.242-3.136-.242V49H0c.121-2.85.182-5.517.182-8 0-2.483-.06-5.15-.182-8h5.66v5.752c.15.015.378.022.68.022 2.365-2.263 4.122-4.187 5.274-5.774h7.363l-7.068 6.832c1 .382 1.91.889 2.727 1.52ZM104.761 49.53h-5.753V37.094h-5.094l-.023 1.36c0 1.19-.03 2.238-.09 3.145a22.145 22.145 0 0 1-.32 2.746c-.302 1.706-1.076 3.075-2.319 4.107C89.934 49.484 88.213 50 86 50v-4.576c.591-.125 1.054-.4 1.387-.822.349-.438.614-1.134.796-2.088.137-.767.205-2.511.205-5.234l-.023-4.787 16.396.023v17.015ZM111.954 45.236c5.761-.031 9.938-.117 12.53-.258a16.893 16.893 0 0 0-.205 1.995c-.015.672-.022 1.525-.022 2.558h-17.67c.121-3.036.182-5.875.182-8.52 0-2.643-.061-5.483-.182-8.518h17.67v4.247h-12.303v2.253a205.714 205.714 0 0 0 10.711-.117v4.037a205.94 205.94 0 0 0-10.711-.118v2.441ZM136.314 49.765c-3.427 0-5.951-.75-7.573-2.253-1.622-1.502-2.433-3.645-2.433-6.43 0-2.8.811-5.014 2.433-6.641 1.622-1.627 4.146-2.441 7.573-2.441 4.79 0 7.997 1.697 9.619 5.093-1.364.485-2.964 1.212-4.798 2.182-.44-.876-1.137-1.525-2.092-1.948a6.98 6.98 0 0 0-2.889-.633c-1.455 0-2.539.399-3.252 1.197-.712.782-1.068 1.752-1.068 2.91 0 1.251.379 2.276 1.137 3.074.773.782 1.948 1.173 3.525 1.173 1.258 0 2.258-.211 3.001-.633.743-.438 1.289-1.127 1.638-2.066 1.243.689 2.835 1.463 4.775 2.324-.758 1.893-2.024 3.215-3.797 3.966-1.774.75-3.707 1.126-5.799 1.126ZM162.11 49.53c-.288-.891-.675-2.01-1.16-3.355h-7.254l-1.137 3.356h-5.708l6.367-17.038h8.369L168 49.53h-5.89Zm-2.456-7.016a313.537 313.537 0 0 0-1.774-4.929l-.546-1.525a600.56 600.56 0 0 0-2.342 6.454h4.662Z"/><defs><linearGradient id="a" x1="26.518" x2="26.518" y1="12.268" y2="46.143" gradientUnits="userSpaceOnUse"><stop stop-color="#074D2A"/><stop offset="1" stop-color="#F29544"/></linearGradient><linearGradient id="b" x1="71.954" x2="71.954" y1="18.664" y2="53.507" gradientUnits="userSpaceOnUse"><stop stop-color="#074D2A"/><stop offset="1" stop-color="#F29544"/></linearGradient><clipPath id="c"><path fill="#fff" d="m51.799 11 25.366 31.74L45.29 68 19.924 36.26z"/></clipPath></defs></svg>
